X:46
T:Junior Crehan's Favorite
T:Knotted Cord, The
M:C|
Z:From Liam O'Flynn
E:7
R:reel
K:ADor
~A3B AE ~E2|A2 (3Bcd edBA|~G3 A GEDE|~G2 BG dGBG|~A3 B AE ~E2|A2 (3Bcd edBA|~G2 Bd efge|dBGA BA ~A2:|
ea~a2 eaag|eaag aged|eg~g2 eggf|~g3 a geed|ea ~a2 eaag|eaag aged|~B3 d gaba|gedB BA A2:|
<end>
<start>
